packages/symbols/svgs/solid/linkedin-solid.svg

<svg width="16" height="16" viewBox="0 0 16 16" xmlns="http://www.w3.org/2000/svg"><g clip-path="url(#a)"><path d="M15.3 0H.7C.3 0 0 .3 0 .7v14.7c0 .3.3.6.7.6h14.7c.4 0 .7-.3.7-.7V.7c-.1-.4-.4-.7-.8-.7ZM4.7 13.6H2.4V6h2.4v7.6h-.1ZM3.6 5c-.8 0-1.4-.7-1.4-1.4 0-.8.6-1.4 1.4-1.4.8 0 1.4.6 1.4 1.4-.1.7-.7 1.4-1.4 1.4Zm10 8.6h-2.4V9.9c0-.9 0-2-1.2-2s-1.4 1-1.4 2v3.8H6.2V6h2.3v1c.3-.6 1.1-1.2 2.2-1.2 2.4 0 2.8 1.6 2.8 3.6v4.2h.1Z"/></g><defs><clipPath id="a"><path fill="#fff" d="M0 0h16v16H0z"/></clipPath></defs></svg>

<svg width="16" height="16" viewBox="0 0 16 16" fill="none" xmlns="http://www.w3.org/2000/svg">
<g clip-path="url(#clip0_587_2555)">
<path d="M15.3 0H0.7C0.3 0 0 0.3 0 0.7V15.4C0 15.7 0.3 16 0.7 16H15.4C15.8 16 16.1 15.7 16.1 15.3V0.7C16 0.3 15.7 0 15.3 0ZM4.7 13.6H2.4V6H4.8V13.6H4.7ZM3.6 5C2.8 5 2.2 4.3 2.2 3.6C2.2 2.8 2.8 2.2 3.6 2.2C4.4 2.2 5 2.8 5 3.6C4.9 4.3 4.3 5 3.6 5ZM13.6 13.6H11.2V9.9C11.2 9 11.2 7.9 10 7.9C8.8 7.9 8.6 8.9 8.6 9.9V13.7H6.2V6H8.5V7C8.8 6.4 9.6 5.8 10.7 5.8C13.1 5.8 13.5 7.4 13.5 9.4V13.6H13.6Z" fill="black"/>
</g>
<defs>
<clipPath id="clip0_587_2555">
<rect width="16" height="16" fill="white"/>
</clipPath>
</defs>
</svg>
